X: 30673
T: Operation Knoydart
R: reel
M: 4/4
K: Dminor
[M:7/4]
DD AD {c}BA FF GF {B}A2 D2|DD AD {c}BA FF GF {B}c3 D|
DD AD {c}BA FF GF AF DC|B,2 DFEC:|D8||
BA F G2 D D/D/D CDF2 DD|BA FG2 F F/F/F GFc2 ((3AGF)|
BA F G2 D D/D/D CDF2 DC|1 B,2 DFEC D8:|2 B,2 DFEC D6 Ac||
|:[M:5/4] d2 fc2 A ((3ABc) GF|c3 F2 FEFD C|[M:6/4] ABAF G3 F GAFD|
[M:4/4]D2 GAFD DC|1 [M:7/4]B,2 ((3DEF) EC D6 ((3ABc):|2 [M:7/4] B,2 ((3DEF) EC D8||

